packages/foundations/assets/icons/functional/images/transportation/handcart_14.svg

<svg width="14" height="14" viewBox="0 0 14 14" fill="none" xmlns="http://www.w3.org/2000/svg">
<g clip-path="url(#clip0_2214_7289)">
<path fill-rule="evenodd" clip-rule="evenodd" d="M3.15027 9.79998C3.73017 9.79998 4.20027 10.2701 4.20027 10.85C4.20027 11.4299 3.73017 11.9 3.15027 11.9C2.57037 11.9 2.10027 11.4299 2.10027 10.85C2.10027 10.2701 2.57037 9.79998 3.15027 9.79998ZM8.05027 9.79998C8.63017 9.79998 9.10027 10.2701 9.10027 10.85C9.10027 11.4299 8.63017 11.9 8.05027 11.9C7.47037 11.9 7.00027 11.4299 7.00027 10.85C7.00027 10.2701 7.47037 9.79998 8.05027 9.79998ZM6.0512 10.325C6.34115 10.325 6.5762 10.56 6.5762 10.85C6.5762 11.1158 6.35582 11.375 6.0512 11.375H5.25027C4.96032 11.375 4.72527 11.1399 4.72527 10.85C4.72527 10.5842 4.9481 10.325 5.25027 10.325H6.0512ZM9.82586 2.09998C10.835 2.09998 11.6949 2.81628 11.8865 3.79524C12.3539 7.23742 12.5897 8.97444 12.594 9.0063C12.635 9.33595 12.4519 9.59954 12.215 9.72545L10.8133 10.4261C10.4675 10.599 10.0471 10.4588 9.87417 10.113C9.71363 9.79194 9.82411 9.36375 10.1872 9.17388L11.1387 8.69748L10.5196 4.1063C10.4763 3.78577 10.2197 3.49914 9.80027 3.49914C9.41367 3.49914 9.1111 3.18657 9.1111 2.79998C9.1111 2.44099 9.39333 2.09998 9.82586 2.09998ZM9.10027 4.89998C9.48687 4.89998 9.80027 5.21338 9.80027 5.59998C9.80027 5.95896 9.50801 6.29527 9.1111 6.30005L9.09957 7.69998C9.1111 8.78286 8.77118 9.09998 7.69957 9.09856H3.49786C2.39883 9.09998 2.09957 8.75951 2.09957 7.69998V6.29527C1.68764 6.29527 1.40027 5.95896 1.40027 5.59998C1.40027 5.24099 1.69654 4.89998 2.09957 4.89998H9.10027ZM7.69957 6.29998H3.49957L3.50027 7.69998H7.70027L7.69957 6.29998Z" fill="#1A1C1F"/>
</g>
<defs>
<clipPath id="clip0_2214_7289">
<rect width="14" height="14" fill="white"/>
</clipPath>
</defs>
</svg>

<svg xmlns="http://www.w3.org/2000/svg" width="14" height="14" fill="none"><g clip-path="url(#a)"><path fill="#1A1C1F" fill-rule="evenodd" d="M3.15 9.8a1.05 1.05 0 1 1 0 2.1 1.05 1.05 0 0 1 0-2.1m4.9 0a1.05 1.05 0 1 1 0 2.1 1.05 1.05 0 0 1 0-2.1m-1.999.525a.525.525 0 1 1 0 1.05h-.8a.525.525 0 0 1-.526-.525c0-.266.223-.525.525-.525zM9.826 2.1a2.1 2.1 0 0 1 2.06 1.695l.708 5.211a.71.71 0 0 1-.379.72l-1.402.7a.7.7 0 0 1-.939-.313.707.707 0 0 1 .313-.94l.952-.476-.62-4.59a.695.695 0 0 0-.719-.608.69.69 0 0 1-.689-.699.7.7 0 0 1 .715-.7M9.1 4.9a.7.7 0 0 1 .011 1.4L9.1 7.7c.011 1.083-.329 1.4-1.4 1.399H3.498C2.398 9.1 2.1 8.759 2.1 7.7V6.295a.697.697 0 0 1-.7-.695c0-.359.297-.7.7-.7zM7.7 6.3H3.5v1.4h4.2z" clip-rule="evenodd"/></g><defs><clipPath id="a"><path fill="#fff" d="M0 0h14v14H0z"/></clipPath></defs></svg>
